X: 4
T: Germantown Hook  v.1
P: piffero primo a0141
O: Ed Olsen
%R: jig, march
F: http://ancients.sudburymuster.org/mus/ssp/pdf/ashgroveF.pdf
Z: 2019 John Chambers <jc:trillian.mit.edu>
M: 6/8
L: 1/8
K: Em
B |\
E2F G2A | B2c BAG | A2G E2D | E3- E2F |\
G2A B2c | d2e d2B | c<Az d2c | B3- Bcd |
e2f gfe | (f3g2)Tf | e2d B2A | B<Ez F2G |\
A2B cde | d2B GAB | TA2G TE2D | E3- E2 :|


